X: 3410
T: Berwick Billy
R: three-two
M: 3/2
K: Gmajor
d2G2 G2d2 edcB|d2G2 G2d2 B2g2|d2G2 G2d2 edcB|e2A2 A2B2 c2e2:|
g3a g2G2 BcdB|g3a g2G2 B2d2|g3a g2G2 BcdB|e2a2 a2A2 c2e2|
g3a g2G2 BcdB|g3a g2G2 B2d2|g3a bagf gfed|e2a2 a2A2 c2e2||
|:d4 edcB edcB|d4 edcB dgfg|d4 edcB edcB|c2A2 A2B2 c2e2:|

